src/Assets/icon/icon_vest.svg

<svg fill="none" height="24" viewBox="0 0 24 24" width="24" xmlns="http://www.w3.org/2000/svg"><g fill="#2977ec"><path d="m2.68549 12.9404 2.5829 2.6052 1.86838 1.8701.7453.7453c.11514.1041.26588.16.42106.1561s.30293-.0673.4127-.1771c.10976-.1097.17314-.2575.17704-.4127s-.05198-.3059-.1561-.421l-2.65299-2.6565.68376-.6837 2.65641 2.653 1.38805 1.3914c.055.0609.1218.1099.1964.1441.0745.0342.1552.053.2372.055.082.0021.1636-.0126.2398-.043.0761-.0304.1453-.076.2033-.134s.1036-.1272.1341-.2034c.0304-.0762.045-.1577.043-.2397-.0021-.082-.0208-.1628-.055-.2373s-.0833-.1414-.1441-.1964l-4.04104-4.0444.68376-.6838 4.04108 4.0411c.1151.1041.2658.16.421.1561s.3029-.0673.4127-.1771.1732-.2575.1771-.4127-.052-.3059-.1561-.421l-1.012-1.012-3.02737-3.0291.68377-.6837 3.0376 3.0256c.1151.1041.2659.16.4211.1561.1551-.0039.3029-.0673.4127-.177.1097-.1098.1731-.2576.177-.4127.0039-.1552-.052-.306-.1561-.4211l-.6444-.6444-2.3385-2.3812-3.00855-3.01885h3.37095c.0777.00425.1555-.00738.2286-.0342.073-.02681.1399-.06824.1964-.12176.0565-.05351.1015-.11798.1323-.18948.0307-.0715.0466-.14852.0466-.22635 0-.07784-.0159-.15486-.0466-.22635-.0308-.0715-.0758-.13597-.1323-.18949-.0565-.05351-.1234-.09494-.1964-.12176-.0731-.02681-.1509-.03845-.2286-.0342h-5.22566v-.96581h5.22736c.2046-.00004.4072.04075.5959.11998s.3597.19531.503.34145c.1433.14613.2559.31938.3314.5096.0755.19023.1123.39359.1082.5982-.0094.40273-.1752.78597-.4625 1.06841-.2872.28244-.6732.44185-1.076.44441h-1.0735l2.0513 2.0513 2.3641 2.3726c.1745.1857.3012.4111.3692.6567s.0752.5041.021.7531-.1681.4811-.332.6762c-.1639.1952-.3728.3475-.6086.444.2142.2197.3594.4973.4177.7986.0584.3013.0273.6131-.0893.8969-.1167.2838-.3139.5274-.5672.7005-.2534.1732-.5519.2684-.8587.274-.0055.3092-.1019.6099-.2771.8646-.1753.2547-.4217.4521-.7085.5677-.2867.1156-.6012.1442-.9041.0822s-.5808-.2118-.7992-.4307l-.36408-.3641c-.07849.1921-.19474.3665-.34188.5128-.29529.2936-.69474.4583-1.11111.4583s-.81582-.1647-1.11111-.4583l-5.20001-5.2205z"/><path d="m17.4597 5.69148c-1.0808.00241-2.1249.39077-2.9431 1.09466s-1.3562 1.6767-1.5166 2.74207c.3574.25311.6819.54939.9663.88199 0-.0758-.0107-.1499-.0107-.2258-.0017-.8065.275-1.58907.7836-2.21634s1.2182-1.06104 2.0097-1.22852 1.6167-.05846 2.3371.30876c.7204.36721 1.2921.97026 1.6192 1.70794.3271.73767.3897 1.56506.1773 2.34326-.2125.7783-.6871 1.4599-1.3441 1.9307-.657.4707-1.4565.7018-2.2642.6545s-1.5746-.3701-2.1718-.9142c.067.3363.1008.6784.1009 1.0213v.2823c.5995.3501 1.2719.5575 1.965.6062.693.0486 1.388-.0628 2.0308-.3257.6428-.2628 1.216-.6701 1.6751-1.1899.459-.5198.7915-1.1383.9716-1.8072.18-.6688.2028-1.37012.0664-2.0492-.1363-.67907-.4281-1.31762-.8525-1.86591-.4245-.5483-.9701-.99155-1.5945-1.29524-.6245-.30369-1.3108-.45963-2.0055-.45567z"/><path d="m16.4159 11.0424-.0221-.014-.3938.5688.0162.0125c.3574.2831.7751.4698 1.2167.5439v.5378h.4586v-.488h.0723c.7993 0 1.0884-.429 1.1901-.788.0406-.1344.0546-.2762.0411-.4166-.0134-.1403-.054-.2762-.1192-.3994-.0885-.1474-.2054-.2735-.3431-.3701-.1377-.0967-.2931-.1618-.4563-.191l-.2639-.0606-.1195-.02953v-.98695c.2941.06273.5759.17784.8332.34038l.0177.01244.3731-.57974-.0162-.01709c-.3699-.23878-.7799-.40025-1.2078-.4756v-.5502h-.4601v.51134c-.6533.02953-1.1061.43519-1.1901.8968-.1239.66832.2949 1.22475 1.0485 1.41745l.1475.0358v.8828c-.2984-.0658-.5793-.2001-.8229-.3932zm.2817-1.80918c.0265-.14144.2226-.29997.5338-.32329v.91234c-.1947-.04662-.6046-.20205-.5324-.58905zm.9939 1.43298.233.0575c.0735.0103.1442.0358.2082.075.0641.0392.1201.0914.165.1535.0195.0415.0307.0868.033.133s-.0044.0925-.0198.1359c-.025.0886-.0885.3108-.6208.2829z"/></g></svg>

<svg width="24" height="24" viewBox="0 0 24 24" fill="none" xmlns="http://www.w3.org/2000/svg">
<path d="M2.68549 12.9404L5.26839 15.5456L7.13677 17.4157L7.88207 18.161C7.99721 18.2651 8.14795 18.321 8.30313 18.3171C8.45831 18.3132 8.60606 18.2498 8.71583 18.14C8.82559 18.0303 8.88897 17.8825 8.89287 17.7273C8.89677 17.5721 8.84089 17.4214 8.73677 17.3063L6.08378 14.6498L6.76754 13.9661L9.42395 16.6191L10.812 18.0105C10.867 18.0714 10.9338 18.1204 11.0084 18.1546C11.0829 18.1888 11.1636 18.2076 11.2456 18.2096C11.3276 18.2117 11.4092 18.197 11.4854 18.1666C11.5615 18.1362 11.6307 18.0906 11.6887 18.0326C11.7467 17.9746 11.7923 17.9054 11.8228 17.8292C11.8532 17.753 11.8678 17.6715 11.8658 17.5895C11.8637 17.5075 11.845 17.4267 11.8108 17.3522C11.7766 17.2777 11.7275 17.2108 11.6667 17.1558L7.62566 13.1114L8.30942 12.4276L12.3505 16.4687C12.4656 16.5728 12.6163 16.6287 12.7715 16.6248C12.9267 16.6209 13.0744 16.5575 13.1842 16.4477C13.294 16.3379 13.3574 16.1902 13.3613 16.035C13.3652 15.8798 13.3093 15.7291 13.2052 15.614L12.1932 14.602L9.16583 11.5729L9.8496 10.8892L12.8872 13.9148C13.0023 14.0189 13.1531 14.0748 13.3083 14.0709C13.4634 14.067 13.6112 14.0036 13.721 13.8939C13.8307 13.7841 13.8941 13.6363 13.898 13.4812C13.9019 13.326 13.846 13.1752 13.7419 13.0601L13.0975 12.4157L10.759 10.0345L7.75045 7.01565H11.1214C11.1991 7.0199 11.2769 7.00827 11.35 6.98145C11.423 6.95464 11.4899 6.91321 11.5464 6.85969C11.6029 6.80618 11.6479 6.74171 11.6787 6.67021C11.7094 6.59871 11.7253 6.52169 11.7253 6.44386C11.7253 6.36602 11.7094 6.289 11.6787 6.21751C11.6479 6.14601 11.6029 6.08154 11.5464 6.02802C11.4899 5.97451 11.423 5.93308 11.35 5.90626C11.2769 5.87945 11.1991 5.86781 11.1214 5.87206H5.89574V4.90625H11.1231C11.3277 4.90621 11.5303 4.947 11.719 5.02623C11.9077 5.10546 12.0787 5.22154 12.222 5.36768C12.3653 5.51381 12.4779 5.68706 12.5534 5.87728C12.6289 6.06751 12.6657 6.27087 12.6616 6.47548C12.6522 6.87821 12.4864 7.26145 12.1991 7.54389C11.9119 7.82633 11.5259 7.98574 11.1231 7.9883H10.0496L12.1009 10.0396L14.465 12.4122C14.6395 12.5979 14.7662 12.8233 14.8342 13.0689C14.9022 13.3145 14.9094 13.573 14.8552 13.822C14.801 14.071 14.6871 14.3031 14.5232 14.4982C14.3593 14.6934 14.1504 14.8457 13.9146 14.9422C14.1288 15.1619 14.274 15.4395 14.3323 15.7408C14.3907 16.0421 14.3596 16.3539 14.243 16.6377C14.1263 16.9215 13.9291 17.1651 13.6758 17.3382C13.4224 17.5114 13.1239 17.6066 12.8171 17.6122C12.8116 17.9214 12.7152 18.2221 12.54 18.4768C12.3647 18.7315 12.1183 18.9289 11.8315 19.0445C11.5448 19.1601 11.2303 19.1887 10.9274 19.1267C10.6245 19.0647 10.3466 18.9149 10.1282 18.696L9.76412 18.3319C9.68563 18.524 9.56938 18.6984 9.42224 18.8447C9.12695 19.1383 8.7275 19.303 8.31113 19.303C7.89476 19.303 7.49531 19.1383 7.20002 18.8447L2.00001 13.6242L2.68549 12.9404Z" fill="#2977EC"/>
<path d="M17.4597 5.69148C16.3789 5.69389 15.3348 6.08225 14.5166 6.78614C13.6984 7.49003 13.1604 8.46284 13 9.52821C13.3574 9.78132 13.6819 10.0776 13.9663 10.4102C13.9663 10.3344 13.9556 10.2603 13.9556 10.1844C13.9539 9.3779 14.2306 8.59533 14.7392 7.96806C15.2478 7.34079 15.9574 6.90702 16.7489 6.73954C17.5404 6.57206 18.3656 6.68108 19.086 7.0483C19.8064 7.41551 20.3781 8.01856 20.7052 8.75624C21.0323 9.49391 21.0949 10.3213 20.8825 11.0995C20.67 11.8778 20.1954 12.5594 19.5384 13.0302C18.8814 13.5009 18.0819 13.732 17.2742 13.6847C16.4665 13.6374 15.6996 13.3146 15.1024 12.7705C15.1694 13.1068 15.2032 13.4489 15.2033 13.7918C15.2033 13.8871 15.2033 13.9806 15.2033 14.0741C15.8028 14.4242 16.4752 14.6316 17.1683 14.6803C17.8613 14.7289 18.5563 14.6175 19.1991 14.3546C19.8419 14.0918 20.4151 13.6845 20.8742 13.1647C21.3332 12.6449 21.6657 12.0264 21.8458 11.3575C22.0258 10.6887 22.0486 9.98738 21.9122 9.3083C21.7759 8.62923 21.4841 7.99068 21.0597 7.44239C20.6352 6.89409 20.0896 6.45084 19.4652 6.14715C18.8407 5.84346 18.1544 5.68752 17.4597 5.69148Z" fill="#2977EC"/>
<path d="M16.4159 11.0424L16.3938 11.0284L16 11.5972L16.0162 11.6097C16.3736 11.8928 16.7913 12.0795 17.2329 12.1536V12.6914H17.6915V12.2034H17.7638C18.5631 12.2034 18.8522 11.7744 18.9539 11.4154C18.9945 11.281 19.0085 11.1392 18.995 10.9988C18.9816 10.8585 18.941 10.7226 18.8758 10.5994C18.7873 10.452 18.6704 10.3259 18.5327 10.2293C18.395 10.1326 18.2396 10.0675 18.0764 10.0383L17.8125 9.9777L17.693 9.94817V8.96122C17.9871 9.02395 18.2689 9.13906 18.5262 9.3016L18.5439 9.31404L18.917 8.7343L18.9008 8.71721C18.5309 8.47843 18.1209 8.31696 17.693 8.24161V7.69141H17.2329V8.20275C16.5796 8.23228 16.1268 8.63794 16.0428 9.09955C15.9189 9.76787 16.3377 10.3243 17.0913 10.517L17.2388 10.5528V11.4356C16.9404 11.3698 16.6595 11.2355 16.4159 11.0424ZM16.6976 9.23322C16.7241 9.09178 16.9202 8.93325 17.2314 8.90993V9.82227C17.0367 9.77565 16.6268 9.62022 16.699 9.23322H16.6976ZM17.6915 10.6662L17.9245 10.7237C17.998 10.734 18.0687 10.7595 18.1327 10.7987C18.1968 10.8379 18.2528 10.8901 18.2977 10.9522C18.3172 10.9937 18.3284 11.039 18.3307 11.0852C18.333 11.1314 18.3263 11.1777 18.3109 11.2211C18.2859 11.3097 18.2224 11.5319 17.6901 11.504L17.6915 10.6662Z" fill="#2977EC"/>
</svg>
